X:1
T:Rosin the Beau
M:3/4
L:1/4
K:C
 z2 G,| C C C| E D C| E- G2-| G2 A| G E D| C D E| A,3-| A,2 G,/2 G,/2|\
 C C C| E D C| E G2-| G2 A| G E C| D E D| C3-| C2 G| G E G| G A B|\
 c2 A| c- B A| G E D| C D E| A,3-| A,2 G,/2 G,/2| C C C| E D C| E G2-|\
 G2 A| G E C| D E D| C3-| C2 z|
